build/img/sprites/topmarka.svg

<svg width="78" height="9" viewBox="0 0 78 9" fill="none" xmlns="http://www.w3.org/2000/svg">
<path fill-rule="evenodd" clip-rule="evenodd" d="M13.0386 9C14.4094 9 15.5566 8.56313 16.4803 7.68937C17.404 6.81593 17.8659 5.75264 17.8659 4.49985C17.8659 3.23888 17.4082 2.17385 16.493 1.30419C15.5777 0.434828 14.4347 0 13.0642 0C11.6935 0 10.5462 0.43687 9.62254 1.31061C8.69883 2.18408 8.237 3.24734 8.237 4.49985C8.237 5.76083 8.69461 6.82615 9.60956 7.69581C10.5248 8.56517 11.6678 9 13.0386 9ZM14.705 6.15653C14.2836 6.60975 13.7366 6.83636 13.0642 6.83636C12.4 6.83636 11.8531 6.60771 11.4232 6.1504C10.9933 5.69307 10.7782 5.1429 10.7782 4.49985C10.7782 3.84892 10.9888 3.2967 11.4102 2.84347C11.8316 2.39025 12.3746 2.16364 13.0386 2.16364C13.7026 2.16364 14.2516 2.39229 14.686 2.8496C15.1201 3.30693 15.3373 3.8571 15.3373 4.49985C15.3373 5.15106 15.1264 5.7033 14.705 6.15653Z" fill="#8A48B8"/>
<path d="M2.68181 2.2749V8.82683H5.15908V2.2749H7.84089V0.173169H0V2.2749H2.68181Z" fill="#8A48B8"/>
<path fill-rule="evenodd" clip-rule="evenodd" d="M19.1558 0.173169V8.82683H21.6331V6.35422H22.859C24.0084 6.35422 24.9363 6.08235 25.6431 5.5383C26.3496 4.99454 26.7029 4.22796 26.7029 3.23888C26.7029 2.2749 26.3689 1.52263 25.7004 0.982962C25.0322 0.442995 24.1275 0.173169 22.9869 0.173169H19.1558ZM22.8081 4.47533H21.6331V2.18816H22.7954C23.2464 2.18816 23.5975 2.28511 23.8488 2.47874C24.1001 2.67235 24.2256 2.95474 24.2256 3.3256C24.2256 3.67983 24.1001 3.96018 23.8488 4.16606C23.5975 4.37223 23.2506 4.47533 22.8081 4.47533Z" fill="#8A48B8"/>
<path fill-rule="evenodd" clip-rule="evenodd" d="M49.8093 0.173298V8.82696H52.2866V6.20599H53.3723L55.1729 8.82696H58.0333L55.9006 5.81055C57.1265 5.30775 57.7395 4.42166 57.7395 3.1526C57.7395 2.29543 57.4758 1.61155 56.9479 1.10046C56.3093 0.482275 55.3389 0.173298 54.0363 0.173298H49.8093ZM53.9214 4.32713H52.2866V2.25015H53.9087C54.3343 2.25015 54.664 2.33662 54.8981 2.50979C55.1322 2.68273 55.2496 2.93813 55.2496 3.27605C55.2496 3.6058 55.1322 3.86334 54.8981 4.04874C54.664 4.23426 54.3386 4.32713 53.9214 4.32713Z" fill="white"/>
<path d="M72.3027 8.82696H68.0006L71.8062 0.111351H74.1945L78 8.82696H73.6597V6.80608H74.5155C74.295 6.25648 74.0771 5.70591 73.859 5.15511C73.5685 4.42147 73.2779 3.68744 72.9811 2.95482C72.6144 3.84954 72.257 4.74096 71.8998 5.63207C71.7429 6.02338 71.5861 6.41463 71.4285 6.80608H72.3027V8.82696Z" fill="white"/>
<path d="M43.2436 8.82696H38.9415L42.747 0.111351H45.1353L48.9409 8.82696H44.6004V6.80608H45.4563C45.2359 6.25648 45.0179 5.70591 44.7998 5.15511C44.5094 4.42147 44.2187 3.68744 43.922 2.95482C43.5528 3.85537 43.1931 4.75257 42.8336 5.64949C42.6791 6.03499 42.5246 6.42044 42.3693 6.80608H43.2436V8.82696Z" fill="white"/>
<path d="M28.5721 0.173298V8.82696H30.9983V3.88199L33.2714 7.24448H33.3227L35.6085 3.85725V8.82696H38.073V0.173298H35.4551L33.3227 3.52342L31.1899 0.173298H28.5721Z" fill="white"/>
<path d="M58.9911 0.173298V8.82696H61.4683V6.58942L62.3753 5.61254L64.6226 8.82696H67.5983L64.0993 3.89426L67.4833 0.173298H64.5463L61.4683 3.68398V0.173298H58.9911Z" fill="white"/>
</svg>

<svg width="78" height="9" viewBox="0 0 78 9" fill="none" xmlns="http://www.w3.org/2000/svg"><path fill-rule="evenodd" clip-rule="evenodd" d="M13.039 9c1.37 0 2.518-.437 3.441-1.31.924-.874 1.386-1.937 1.386-3.19 0-1.261-.458-2.326-1.373-3.196C15.578.434 14.435 0 13.064 0c-1.37 0-2.518.437-3.441 1.31-.924.874-1.386 1.937-1.386 3.19 0 1.26.458 2.326 1.373 3.196.915.87 2.058 1.304 3.429 1.304zm1.666-2.843c-.421.453-.968.68-1.64.68-.665 0-1.212-.23-1.642-.687a2.324 2.324 0 01-.645-1.65c0-.651.21-1.203.632-1.657.422-.453.965-.68 1.629-.68s1.213.23 1.647.687a2.31 2.31 0 01.651 1.65c0 .651-.21 1.203-.632 1.657z" fill="#8A48B8"/><path d="M2.682 2.275v6.552h2.477V2.275h2.682V.173H0v2.102h2.682z" fill="#8A48B8"/><path fill-rule="evenodd" clip-rule="evenodd" d="M19.156.173v8.654h2.477V6.354h1.226c1.15 0 2.077-.272 2.784-.816.707-.543 1.06-1.31 1.06-2.3 0-.963-.334-1.715-1.003-2.255-.668-.54-1.572-.81-2.713-.81h-3.831zm3.652 4.302h-1.175V2.188h1.162c.451 0 .802.097 1.054.29.251.194.377.477.377.848 0 .354-.126.634-.377.84-.252.206-.598.31-1.04.31z" fill="#8A48B8"/><path fill-rule="evenodd" clip-rule="evenodd" d="M49.81.173v8.654h2.477V6.206h1.085l1.8 2.621h2.861l-2.132-3.016c1.225-.503 1.838-1.39 1.838-2.658 0-.858-.263-1.541-.791-2.053-.639-.618-1.61-.927-2.912-.927H49.81zm4.111 4.154h-1.634V2.25h1.622c.425 0 .755.087.99.26.233.173.35.428.35.766 0 .33-.117.587-.35.773-.235.185-.56.278-.978.278z" fill="#fff"/><path d="M72.303 8.827H68L71.806.111h2.389L78 8.827h-4.34v-2.02h.856c-.221-.55-.439-1.101-.657-1.652-.29-.734-.581-1.468-.878-2.2-.367.895-.724 1.786-1.081 2.677l-.472 1.174h.875v2.021zm-29.059 0H38.94L42.747.111h2.388l3.806 8.716H44.6v-2.02h.855c-.22-.55-.438-1.101-.656-1.652-.29-.734-.581-1.468-.878-2.2-.37.9-.729 1.798-1.088 2.694l-.465 1.157h.875v2.021zM28.572.173v8.654h2.426V3.882l2.273 3.362h.052l2.285-3.387v4.97h2.465V.173h-2.618l-2.132 3.35L31.19.173h-2.618zm30.419 0v8.654h2.477V6.589l.907-.976 2.248 3.214h2.975L64.1 3.894l3.384-3.72h-2.937l-3.078 3.51V.174h-2.477z" fill="#fff"/></svg>
